lib/radiotmp/nrk-media--complete-expressive.svg

<svg width="24" height="24" viewBox="0 0 24 24" fill="none" xmlns="http://www.w3.org/2000/svg">
<path fill-rule="evenodd" clip-rule="evenodd" d="M12 3C7.02944 3 3 7.02944 3 12C3 16.9706 7.02944 21 12 21C16.9706 21 21 16.9706 21 12C21 7.02944 16.9706 3 12 3ZM1 12C1 5.92487 5.92487 1 12 1C18.0751 1 23 5.92487 23 12C23 18.0751 18.0751 23 12 23C5.92487 23 1 18.0751 1 12Z" fill="black"/>
<path fill-rule="evenodd" clip-rule="evenodd" d="M16.9007 8.29305C17.2912 8.68357 17.2912 9.31674 16.9007 9.70726L10.9694 15.6385C10.3849 16.2229 9.42511 16.1807 8.89426 15.5471L6.62859 12.8431C6.27975 12.4267 6.32916 11.8076 6.73962 11.4519C7.16258 11.0853 7.80455 11.1395 8.16006 11.5718L9.98657 13.7928L15.4865 8.29304C15.877 7.90252 16.5102 7.90252 16.9007 8.29305Z" fill="black"/>
</svg>

<svg xmlns="http://www.w3.org/2000/svg" viewBox="0 0 24 24"><path fill="#000" fill-rule="evenodd" d="M12 3a9 9 0 1 0 0 18 9 9 0 0 0 0-18ZM1 12C1 5.925 5.925 1 12 1s11 4.925 11 11-4.925 11-11 11S1 18.075 1 12Z" clip-rule="evenodd"/><path fill="#000" fill-rule="evenodd" d="M16.9 8.293a1 1 0 0 1 0 1.414l-5.93 5.931a1.408 1.408 0 0 1-2.076-.09L6.63 12.842a.995.995 0 1 1 1.531-1.271l1.827 2.22 5.5-5.499a1 1 0 0 1 1.414 0Z" clip-rule="evenodd"/></svg>
